build/dist/assets/images/services/services-5.svg

<svg width="68" height="110" viewBox="0 0 68 110" fill="none" xmlns="http://www.w3.org/2000/svg">
<path d="M26.5988 56.9287L53.8257 44.9336L53.9925 44.8489C60.7888 40.9918 65 33.7015 65 25.8179C65 13.8228 55.4101 4.07422 43.6104 4.07422H25.3896C13.5899 4.07422 4 13.8228 4 25.8179C4 37.8129 13.5899 47.5615 25.3896 47.5615V43.323C16.5919 43.323 9.33698 36.5837 8.2946 27.9371H23.2632C23.4299 33.1081 27.5995 37.2619 32.728 37.2619H36.3137C41.4422 37.2619 45.6118 33.1081 45.7785 27.9371H60.7054C60.0383 33.4048 56.8694 38.3215 52.0745 41.0766L24.931 53.0292C17.2174 56.4201 12.9228 64.6428 14.4238 73.0351L19.3855 100.416C19.9692 103.637 22.7211 105.926 25.89 105.926C29.5591 105.926 32.5195 102.917 32.5195 99.1868V74.0523C32.5195 72.9503 33.3951 72.0602 34.4792 72.0602C35.5632 72.0602 36.4388 72.9503 36.4388 74.0523V99.1868C36.4388 102.917 39.3992 105.926 43.0683 105.926C46.2789 105.926 49.0308 103.595 49.5728 100.416L54.5345 73.0351C55.1599 69.5171 54.7847 65.872 53.3671 62.5659L49.5311 64.2189C50.6152 66.7621 50.907 69.5171 50.4067 72.2298L45.445 99.6107C45.2365 100.797 44.1941 101.645 43.0267 101.645C41.6507 101.645 40.5666 100.501 40.5666 99.1444V74.0099C40.5666 70.5767 37.8148 67.7793 34.4375 67.7793C31.0601 67.7793 28.3083 70.5767 28.3083 74.0099V99.1444C28.3083 100.543 27.1825 101.645 25.8483 101.645C24.6391 101.645 23.6384 100.797 23.4299 99.6107L18.4682 72.2298C17.3424 65.8296 20.6781 59.5142 26.5988 56.9287ZM41.609 27.6404C41.609 30.6074 39.2324 33.0234 36.3137 33.0234H32.728C29.8093 33.0234 27.4327 30.6074 27.4327 27.6404V23.9953C27.4327 21.0283 29.8093 18.6124 32.728 18.6124H36.3137C39.2324 18.6124 41.609 21.0283 41.609 23.9953V27.6404ZM36.272 14.3738H32.6863C27.5578 14.3738 23.3882 18.5276 23.2215 23.6986H8.2946C9.33698 15.052 16.5919 8.31275 25.3896 8.31275H43.6104C52.4081 8.31275 59.663 15.052 60.7054 23.6986H45.7368C45.6118 18.5276 41.4005 14.3738 36.272 14.3738Z" fill="#00AEDA"/>
</svg>

<svg width="68" height="110" fill="none" xmlns="http://www.w3.org/2000/svg"><path d="M26.599 56.929l27.227-11.995.166-.085C60.79 40.992 65 33.702 65 25.818c0-11.995-9.59-21.744-21.39-21.744H25.39C13.59 4.074 4 13.823 4 25.818s9.59 21.744 21.39 21.744v-4.239c-8.798 0-16.053-6.74-17.095-15.386h14.968c.167 5.171 4.336 9.325 9.465 9.325h3.586c5.128 0 9.298-4.154 9.465-9.325h14.926c-.667 5.468-3.836 10.384-8.63 13.14L24.93 53.029c-7.714 3.391-12.008 11.614-10.507 20.006l4.962 27.381c.583 3.221 3.335 5.51 6.504 5.51 3.67 0 6.63-3.009 6.63-6.74V74.053c0-1.102.875-1.992 1.96-1.992 1.083 0 1.959.89 1.959 1.992v25.135c0 3.73 2.96 6.739 6.63 6.739 3.21 0 5.962-2.331 6.504-5.51l4.962-27.38c.625-3.519.25-7.164-1.168-10.47L49.53 64.22a13.884 13.884 0 01.876 8.01l-4.962 27.382a2.469 2.469 0 01-2.418 2.034c-1.376 0-2.46-1.144-2.46-2.5V74.01c0-3.433-2.752-6.23-6.13-6.23-3.377 0-6.129 2.797-6.129 6.23v25.134c0 1.399-1.125 2.501-2.46 2.501a2.435 2.435 0 01-2.418-2.034L18.468 72.23c-1.126-6.4 2.21-12.716 8.13-15.301zm15.01-29.289c0 2.967-2.377 5.383-5.295 5.383h-3.586c-2.919 0-5.295-2.416-5.295-5.383v-3.645c0-2.967 2.376-5.383 5.295-5.383h3.586c2.918 0 5.295 2.416 5.295 5.383v3.645zm-5.337-13.266h-3.586c-5.128 0-9.298 4.154-9.465 9.325H8.295C9.337 15.052 16.592 8.313 25.39 8.313h18.22c8.798 0 16.053 6.739 17.095 15.386H45.737c-.125-5.171-4.337-9.325-9.465-9.325z" fill="#00AEDA"/></svg>
